actions/22x22-dark/adjustcurves.svg

<svg viewBox="0 0 22 22" xmlns="http://www.w3.org/2000/svg"><path d="m4 3v6 1 3.460938 1.414062.125 1 1h-1v1h1v1h1v-1h13.292969.707031v-.707031-.292969h-.292969-1.414062-12.292969v-1.568359-.007813-.423828-1.125l3.9980469-3.9980469 2.1230471 2.1230469.005859-.003906.003906.003906 7.869141-7.875v-1.125h-.289062c.0072-.012362-7.583985 7.589844-7.583985 7.589844l-2.126953-2.1250002-.0019531.0019531-.0019531-.0019531-3.9960938 3.9960942v-.03711-1-.423828-1-1-3-.0078125-.9921875-2z" fill="#f2f2f2"/><path d="m19 4.125-7.869141 7.875-.003906-.003906-.005859.003906-2.1230471-2.1230469-3.9980469 3.9980469v3.125h14z" fill="#f2f2f2" fill-opacity=".5"/></svg>

<svg xmlns="http://www.w3.org/2000/svg" viewBox="0 0 22 22">
  <defs id="defs3051">
    <style type="text/css" id="current-color-scheme">
      .ColorScheme-Text {
        color:#f2f2f2;
      }
      </style>
  </defs>
 <path 
    style="fill:currentColor;fill-opacity:1;stroke:none" 
	d="M 4 3 L 4 9 L 4 10 L 4 13.460938 L 4 14.875 L 4 15 L 4 16 L 4 17 L 3 17 L 3 18 L 4 18 L 4 19 L 5 19 L 5 18 L 18.292969 18 L 19 18 L 19 17.292969 L 19 17 L 18.707031 17 L 17.292969 17 L 5 17 L 5 15.431641 L 5 15.423828 L 5 15 L 5 13.875 L 8.9980469 9.8769531 L 11.121094 12 L 11.126953 11.996094 L 11.130859 12 L 19 4.125 L 19 3 L 18.710938 3 C 18.718138 2.987638 11.126953 10.589844 11.126953 10.589844 L 9 8.4648438 L 8.9980469 8.4667969 L 8.9960938 8.4648438 L 5 12.460938 L 5 12.423828 L 5 11.423828 L 5 11 L 5 10 L 5 9 L 5 6 L 5 5.9921875 L 5 5 L 5 3 L 4 3 z "
	class="ColorScheme-Text"
    />
 <path 
    style="fill:currentColor;fill-opacity:0.5;stroke:none" 
	d="M 19 4.125 L 11.130859 12 L 11.126953 11.996094 L 11.121094 12 L 8.9980469 9.8769531 L 5 13.875 L 5 17 L 19 17 L 19 4.125 z "
       class="ColorScheme-Text"
    />
</svg>
